X:1     %Music
T:Here's Adieu to All Judges and Juries
B: Purslow, F, (1972), The Constant Lovers, EDFS, London
S:George Blake, St Denys, Southampton, May 1906
Z:Gardiner Hp. 308.  
F:http://www.folkinfo.org/songs
M:3/4     %Meter
L:1/8     %
K:D
A3/2A/ |A2 D2 D2 |F2 G2 A2 |F2 D4-| D4
w:Her's a-dieu to all judg-es and ju-ries!*
D3/2D/ |F2 A2 d2 |G2 B2 d2 |A4-|A6
w:Here's a-dieu to you bail-iffs al-so!*
AA |d2 B2 G2 |B2 A2 A2 |F2 D4-|D4
w:Sev-en years you've parted me from my true love, *
DD |F2 A2 B2 |AF E2 D2 |D4-| D6 |]
w:Sev-en years I'm trans-*port-ed you know*